pub/sources/network-svgrepo-com.svg

<?xml version="1.0" encoding="UTF-8"?>
<svg xmlns="http://www.w3.org/2000/svg" xmlns:xlink="http://www.w3.org/1999/xlink" width="50px" height="px" viewBox="0 0 50 50" version="1.1">
<g id="surface1">
<path style=" stroke:none;fill-rule:nonzero;fill:rgb(22.352941%,22.352941%,22.745098%);fill-opacity:1;" d="M 41.214844 10.320312 C 41.039062 10.125 40.859375 9.9375 40.679688 9.75 C 38.050781 7.046875 34.726562 5.019531 31 3.957031 C 30.265625 3.746094 29.511719 3.574219 28.746094 3.441406 C 27.523438 3.234375 26.273438 3.125 25 3.125 C 18.847656 3.125 13.285156 5.664062 9.3125 9.757812 C 9.132812 9.941406 8.949219 10.132812 8.773438 10.328125 C 5.265625 14.203125 3.125 19.355469 3.125 25 C 3.125 30.644531 5.265625 35.785156 8.769531 39.667969 C 8.945312 39.863281 9.121094 40.054688 9.304688 40.238281 C 11.9375 42.949219 15.269531 44.980469 19.003906 46.046875 C 19.742188 46.253906 20.492188 46.425781 21.257812 46.558594 C 22.476562 46.765625 23.726562 46.875 25 46.875 C 26.273438 46.875 27.523438 46.765625 28.746094 46.558594 C 29.511719 46.425781 30.265625 46.253906 31 46.046875 C 34.738281 44.984375 38.0625 42.953125 40.695312 40.242188 C 40.875 40.054688 41.054688 39.867188 41.230469 39.671875 C 44.734375 35.789062 46.875 30.644531 46.875 25 C 46.875 19.351562 44.730469 14.203125 41.214844 10.320312 Z M 44.722656 25.402344 C 44.671875 27.925781 44.15625 30.371094 43.179688 32.679688 C 42.328125 34.691406 41.164062 36.527344 39.707031 38.148438 C 39.535156 38.34375 39.355469 38.535156 39.175781 38.722656 C 39.101562 38.800781 39.023438 38.871094 38.949219 38.949219 C 37.136719 40.761719 35.03125 42.1875 32.679688 43.179688 C 30.933594 43.917969 29.109375 44.394531 27.230469 44.605469 C 26.621094 44.671875 26.011719 44.710938 25.390625 44.722656 C 25.261719 44.726562 25.132812 44.726562 25 44.726562 C 24.867188 44.726562 24.742188 44.726562 24.609375 44.722656 C 23.992188 44.710938 23.378906 44.671875 22.769531 44.605469 C 20.894531 44.394531 19.066406 43.917969 17.320312 43.179688 C 14.96875 42.183594 12.859375 40.761719 11.050781 38.949219 C 10.972656 38.871094 10.894531 38.792969 10.820312 38.714844 C 10.640625 38.53125 10.457031 38.335938 10.289062 38.144531 C 8.832031 36.523438 7.671875 34.6875 6.820312 32.679688 C 5.84375 30.371094 5.328125 27.925781 5.277344 25.402344 L 10.613281 25.402344 C 10.613281 25.269531 10.609375 25.136719 10.609375 25 C 10.609375 24.875 10.609375 24.746094 10.613281 24.621094 L 5.277344 24.621094 C 5.328125 22.089844 5.84375 19.640625 6.824219 17.324219 C 7.675781 15.3125 8.84375 13.472656 10.304688 11.851562 C 10.472656 11.65625 10.65625 11.464844 10.835938 11.28125 C 10.90625 11.207031 10.980469 11.128906 11.054688 11.054688 C 12.867188 9.242188 14.976562 7.816406 17.324219 6.828125 C 19.070312 6.089844 20.894531 5.609375 22.773438 5.402344 C 23.382812 5.332031 23.992188 5.292969 24.613281 5.277344 C 24.746094 5.273438 24.875 5.273438 25.003906 5.273438 C 25.136719 5.273438 25.261719 5.273438 25.394531 5.277344 C 26.015625 5.289062 26.625 5.332031 27.234375 5.402344 C 29.109375 5.609375 30.9375 6.089844 32.679688 6.828125 C 35.03125 7.816406 37.136719 9.242188 38.949219 11.054688 C 39.023438 11.128906 39.097656 11.203125 39.164062 11.273438 C 39.34375 11.460938 39.527344 11.652344 39.695312 11.847656 C 41.15625 13.472656 42.324219 15.308594 43.179688 17.324219 C 44.15625 19.640625 44.675781 22.089844 44.722656 24.621094 L 39.382812 24.621094 C 39.382812 24.746094 39.390625 24.875 39.390625 25 C 39.390625 25.132812 39.390625 25.265625 39.382812 25.402344 Z M 44.722656 25.402344 "/>
<path style=" stroke:none;fill-rule:nonzero;fill:rgb(22.352941%,22.352941%,22.745098%);fill-opacity:1;" d="M 38.609375 25 C 38.609375 25.132812 38.609375 25.265625 38.601562 25.402344 L 25.390625 25.402344 L 25.390625 32.464844 C 25.257812 32.460938 25.125 32.460938 24.996094 32.460938 C 24.867188 32.460938 24.734375 32.460938 24.609375 32.464844 L 24.609375 25.402344 L 11.398438 25.402344 C 11.390625 25.269531 11.390625 25.136719 11.390625 25 C 11.390625 24.875 11.390625 24.746094 11.398438 24.617188 L 24.609375 24.617188 L 24.609375 17.519531 C 24.734375 17.519531 24.867188 17.523438 24.996094 17.523438 C 25.125 17.523438 25.257812 17.523438 25.390625 17.519531 L 25.390625 24.621094 L 38.601562 24.621094 C 38.601562 24.746094 38.609375 24.875 38.609375 25 Z M 25.390625 5.425781 L 25.390625 16.734375 C 25.257812 16.738281 25.125 16.738281 24.996094 16.738281 C 24.867188 16.738281 24.734375 16.738281 24.609375 16.734375 L 24.609375 5.425781 C 24.742188 5.371094 24.867188 5.320312 25 5.273438 C 25.132812 5.320312 25.257812 5.375 25.390625 5.425781 Z M 25 44.726562 Z M 25.390625 33.246094 L 25.390625 44.574219 C 25.257812 44.628906 25.132812 44.679688 25 44.726562 C 24.867188 44.679688 24.742188 44.625 24.609375 44.574219 L 24.609375 33.246094 C 24.734375 33.242188 24.867188 33.242188 24.996094 33.242188 C 25.125 33.242188 25.257812 33.242188 25.390625 33.246094 Z M 25.390625 33.246094 "/>
<path style=" stroke:none;fill-rule:nonzero;fill:rgb(90.588236%,23.137255%,21.568628%);fill-opacity:1;" d="M 25 44.726562 Z M 25 44.726562 Z M 36.558594 35.765625 C 38.296875 32.695312 39.316406 29.164062 39.378906 25.402344 C 39.378906 25.269531 39.382812 25.136719 39.382812 25 C 39.382812 24.875 39.382812 24.746094 39.378906 24.617188 C 39.316406 20.84375 38.296875 17.300781 36.546875 14.222656 C 37.671875 13.523438 38.71875 12.730469 39.691406 11.84375 C 39.515625 11.648438 39.339844 11.460938 39.160156 11.273438 C 38.222656 12.128906 37.21875 12.890625 36.148438 13.554688 C 34.003906 10.066406 30.90625 7.230469 27.222656 5.398438 C 26.609375 5.332031 26 5.292969 25.378906 5.277344 C 25.25 5.273438 25.121094 5.273438 24.988281 5.273438 C 25.121094 5.320312 25.25 5.375 25.378906 5.425781 C 25.492188 5.46875 25.601562 5.515625 25.710938 5.5625 C 28.222656 6.625 30.476562 8.144531 32.417969 10.082031 C 33.59375 11.257812 34.613281 12.554688 35.476562 13.949219 C 34.746094 14.371094 33.984375 14.75 33.199219 15.082031 C 30.71875 16.132812 28.089844 16.6875 25.386719 16.738281 C 25.253906 16.742188 25.121094 16.742188 24.988281 16.742188 C 24.863281 16.742188 24.730469 16.742188 24.605469 16.738281 C 21.894531 16.6875 19.261719 16.132812 16.777344 15.082031 C 15.996094 14.75 15.234375 14.375 14.5 13.953125 C 15.359375 12.558594 16.386719 11.257812 17.5625 10.082031 C 19.5 8.144531 21.757812 6.625 24.265625 5.5625 C 24.378906 5.515625 24.488281 5.46875 24.597656 5.425781 C 24.730469 5.371094 24.859375 5.320312 24.988281 5.273438 C 24.859375 5.273438 24.730469 5.273438 24.597656 5.277344 C 23.980469 5.289062 23.367188 5.332031 22.757812 5.398438 C 19.070312 7.230469 15.976562 10.066406 13.832031 13.558594 C 12.761719 12.894531 11.757812 12.132812 10.820312 11.277344 C 10.640625 11.464844 10.457031 11.660156 10.289062 11.851562 C 11.257812 12.734375 12.3125 13.53125 13.4375 14.226562 C 11.695312 17.304688 10.671875 20.84375 10.609375 24.617188 C 10.609375 24.746094 10.605469 24.871094 10.605469 25 C 10.605469 25.132812 10.605469 25.261719 10.609375 25.398438 C 10.679688 29.160156 11.695312 32.691406 13.433594 35.761719 C 12.308594 36.460938 11.253906 37.261719 10.28125 38.144531 C 10.453125 38.339844 10.632812 38.53125 10.816406 38.714844 C 11.753906 37.859375 12.757812 37.097656 13.828125 36.429688 C 15.972656 39.925781 19.070312 42.769531 22.761719 44.605469 C 23.375 44.671875 23.984375 44.710938 24.605469 44.722656 C 24.734375 44.726562 24.863281 44.726562 24.996094 44.726562 C 24.863281 44.675781 24.734375 44.625 24.605469 44.574219 C 24.492188 44.53125 24.382812 44.480469 24.273438 44.4375 C 21.761719 43.375 19.507812 41.855469 17.566406 39.917969 C 16.386719 38.734375 15.359375 37.4375 14.5 36.035156 C 15.234375 35.613281 15.996094 35.234375 16.78125 34.902344 C 19.261719 33.851562 21.894531 33.296875 24.609375 33.246094 C 24.734375 33.242188 24.867188 33.242188 24.996094 33.242188 C 25.125 33.242188 25.257812 33.242188 25.390625 33.246094 C 28.101562 33.296875 30.726562 33.851562 33.203125 34.902344 C 33.992188 35.234375 34.753906 35.613281 35.492188 36.039062 C 34.632812 37.441406 33.609375 38.738281 32.425781 39.921875 C 30.488281 41.859375 28.230469 43.378906 25.722656 44.441406 C 25.609375 44.492188 25.503906 44.535156 25.390625 44.578125 C 25.257812 44.632812 25.132812 44.683594 25 44.730469 C 25.132812 44.730469 25.257812 44.730469 25.390625 44.726562 C 26.011719 44.714844 26.621094 44.675781 27.230469 44.609375 C 30.921875 42.777344 34.019531 39.9375 36.160156 36.441406 C 37.226562 37.105469 38.238281 37.871094 39.175781 38.726562 C 39.355469 38.539062 39.53125 38.347656 39.707031 38.152344 C 38.734375 37.261719 37.679688 36.464844 36.558594 35.765625 Z M 25.390625 32.464844 C 25.257812 32.460938 25.125 32.460938 24.996094 32.460938 C 24.867188 32.460938 24.734375 32.460938 24.609375 32.464844 C 20.789062 32.535156 17.210938 33.578125 14.105469 35.359375 C 13.714844 34.667969 13.363281 33.949219 13.050781 33.210938 C 12 30.734375 11.445312 28.109375 11.394531 25.398438 C 11.390625 25.269531 11.390625 25.136719 11.390625 25 C 11.390625 24.871094 11.390625 24.746094 11.394531 24.617188 C 11.445312 21.902344 12 19.273438 13.050781 16.792969 C 13.363281 16.050781 13.71875 15.328125 14.117188 14.628906 C 17.21875 16.410156 20.796875 17.457031 24.609375 17.519531 C 24.734375 17.519531 24.867188 17.523438 24.996094 17.523438 C 25.125 17.523438 25.257812 17.523438 25.390625 17.519531 C 29.203125 17.449219 32.78125 16.40625 35.882812 14.625 C 36.28125 15.320312 36.636719 16.042969 36.949219 16.792969 C 38 19.277344 38.554688 21.910156 38.601562 24.617188 C 38.601562 24.746094 38.609375 24.871094 38.609375 25 C 38.609375 25.132812 38.609375 25.261719 38.601562 25.398438 C 38.554688 28.105469 38 30.734375 36.949219 33.210938 C 36.636719 33.953125 36.285156 34.671875 35.886719 35.367188 C 32.789062 33.578125 29.207031 32.535156 25.390625 32.464844 Z M 25.390625 32.464844 "/>
</g>
</svg>

<svg xmlns="http://www.w3.org/2000/svg" width="50" height="px" viewBox="0 0 50 50"><path d="M41.215 10.32c-.176-.195-.356-.383-.535-.57a21.885 21.885 0 00-11.934-6.309A22.412 22.412 0 0025 3.125 21.793 21.793 0 009.312 9.758 21.801 21.801 0 003.125 25a21.822 21.822 0 006.18 15.238 21.922 21.922 0 009.7 5.809 22.74 22.74 0 002.254.512 22.33 22.33 0 007.488 0A22.47 22.47 0 0031 46.047a21.844 21.844 0 009.695-5.805A21.832 21.832 0 0046.875 25a21.8 21.8 0 00-5.66-14.68zm3.508 15.082a19.592 19.592 0 01-5.016 12.746 19.32 19.32 0 01-.531.575c-.074.078-.153.148-.227.226a19.611 19.611 0 01-6.27 4.23 19.55 19.55 0 01-7.288 1.544c-.13.004-.258.004-.391.004s-.258 0-.39-.004a19.585 19.585 0 01-7.29-1.543 19.632 19.632 0 01-6.27-4.23l-.23-.235a19.574 19.574 0 01-4-6.035 19.592 19.592 0 01-1.543-7.278h5.336c0-.132-.004-.265-.004-.402 0-.125 0-.254.004-.379H5.277a19.618 19.618 0 015.559-13.34 19.58 19.58 0 016.488-4.453 19.416 19.416 0 015.45-1.426c.609-.07 1.218-.109 1.84-.125.132-.004.261-.004.39-.004a19.141 19.141 0 012.23.129 19.39 19.39 0 015.446 1.426 19.537 19.537 0 016.484 4.445c.18.188.363.38.531.575a19.627 19.627 0 013.485 5.476 19.614 19.614 0 011.543 7.297h-5.34c0 .125.008.254.008.379 0 .133 0 .266-.008.402zm0 0" fill="#39393a"/><path d="M38.61 25c0 .133 0 .266-.008.402H25.39v7.063c-.133-.004-.266-.004-.395-.004s-.262 0-.387.004v-7.063H11.4c-.008-.132-.008-.265-.008-.402 0-.125 0-.254.007-.383H24.61V17.52l.387.003c.129 0 .262 0 .395-.003v7.101H38.6c0 .125.008.254.008.379zM25.39 5.426v11.308c-.132.004-.265.004-.394.004s-.262 0-.387-.004V5.426c.133-.055.258-.106.391-.153.133.047.258.102.39.153zm-.39 39.3zm.39-11.48v11.328a8.052 8.052 0 01-.39.153c-.133-.047-.258-.102-.39-.153V33.246c.124-.004.257-.004.386-.004s.262 0 .395.004zm0 0" fill="#39393a"/><path d="M25 44.727zm0 0zm11.559-8.961a21.71 21.71 0 002.82-10.364c0-.132.004-.265.004-.402 0-.125 0-.254-.004-.383a21.698 21.698 0 00-2.832-10.394 21.51 21.51 0 003.144-2.38 24.745 24.745 0 00-.53-.57 20.485 20.485 0 01-3.013 2.282 21.978 21.978 0 00-8.925-8.157 22.243 22.243 0 00-1.844-.12c-.129-.005-.258-.005-.39-.005.132.047.261.102.39.153.113.043.223.09.332.136a21.074 21.074 0 016.707 4.52 21.35 21.35 0 013.059 3.867 20.944 20.944 0 01-10.09 2.79c-.133.003-.266.003-.399.003-.125 0-.258 0-.383-.004A21.008 21.008 0 0114.5 13.953a21.229 21.229 0 013.063-3.871 21.057 21.057 0 016.703-4.52c.113-.046.222-.093.332-.136a10 10 0 01.39-.153c-.129 0-.258 0-.39.004-.618.012-1.23.055-1.84.121a21.936 21.936 0 00-8.926 8.16 20.485 20.485 0 01-3.012-2.28c-.18.187-.363.382-.53.574.968.882 2.023 1.68 3.148 2.375a21.768 21.768 0 00-2.829 10.39c0 .13-.004.254-.004.383a21.803 21.803 0 002.828 10.762c-1.124.699-2.18 1.5-3.152 2.383.172.195.352.386.535.57a20.788 20.788 0 013.012-2.285 21.97 21.97 0 008.934 8.175 20.668 20.668 0 002.234.122 32.036 32.036 0 01-.39-.153c-.114-.043-.223-.094-.333-.136a21.16 21.16 0 01-9.773-8.402 21.003 21.003 0 0110.11-2.79c.124-.004.257-.004.386-.004s.262 0 .395.004c2.71.05 5.336.606 7.812 1.656.79.332 1.55.711 2.29 1.137a20.994 20.994 0 01-3.067 3.883A21.057 21.057 0 0125 44.73c.133 0 .258 0 .39-.003a20.347 20.347 0 001.84-.118 21.89 21.89 0 008.93-8.168 20.754 20.754 0 013.016 2.286c.18-.188.355-.38.531-.575a21.527 21.527 0 00-3.148-2.386zM25.39 32.465c-.133-.004-.266-.004-.395-.004s-.262 0-.387.004a21.852 21.852 0 00-10.504 2.894 21.05 21.05 0 01-1.054-2.148 20.896 20.896 0 01-1.656-7.813c-.004-.128-.004-.261-.004-.398a20.955 20.955 0 012.727-10.371 21.73 21.73 0 0010.491 2.89c.125 0 .258.004.387.004s.262 0 .395-.003a21.82 21.82 0 0010.492-2.895c.398.695.754 1.418 1.066 2.168a20.923 20.923 0 011.653 7.824c0 .13.007.254.007.383 0 .133 0 .262-.007.398a20.832 20.832 0 01-1.653 7.813c-.312.742-.664 1.46-1.062 2.156a21.73 21.73 0 00-10.496-2.902zm0 0" fill="#e73b37"/></svg>
